X: 28810
T: My Mind Will Never Be Easy
R: jig
M: 6/8
K: Gmajor
|:egf|e2d B3|BAB G2A|B2d deB|d3dgf|
e2d B3|BAB G2A|B2e efd|1 e3:|2 e3 e2g||
def gaf|gdB B2A|B2d deB|d3 d2g|
def gaf|gdB B2A|B2e efd|e3 e2g|
def gaf|gdB B2A|B2e efd|e3 efg|
agf gfe|fdB B2A|B2e efd|e3||

